svg/select_group.svg

<svg xmlns="http://www.w3.org/2000/svg" viewBox="0 0 24 24"><path d="M5 3a2 2 0 0 0-2 2h2m2-2v2h2V3m2 0v2h2V3m2 0v2h2V3m2 0v2h2a2 2 0 0 0-2-2M3 7v2h2V7m2 0v4h4V7m2 0v4h4V7m2 0v2h2V7M3 11v2h2v-2m14 0v2h2v-2M7 13v4h4v-4m2 0v4h4v-4M3 15v2h2v-2m14 0v2h2v-2M3 19a2 2 0 0 0 2 2v-2m2 0v2h2v-2m2 0v2h2v-2m2 0v2h2v-2m2 0v2a2 2 0 0 0 2-2Z"/></svg>

<?xml version="1.0" encoding="UTF-8"?><!DOCTYPE svg PUBLIC "-//W3C//DTD SVG 1.1//EN" "http://www.w3.org/Graphics/SVG/1.1/DTD/svg11.dtd"><svg xmlns="http://www.w3.org/2000/svg" xmlns:xlink="http://www.w3.org/1999/xlink" version="1.1" id="mdi-select-group" width="24" height="24" viewBox="0 0 24 24"><path d="M5 3A2 2 0 0 0 3 5H5M7 3V5H9V3M11 3V5H13V3M15 3V5H17V3M19 3V5H21A2 2 0 0 0 19 3M3 7V9H5V7M7 7V11H11V7M13 7V11H17V7M19 7V9H21V7M3 11V13H5V11M19 11V13H21V11M7 13V17H11V13M13 13V17H17V13M3 15V17H5V15M19 15V17H21V15M3 19A2 2 0 0 0 5 21V19M7 19V21H9V19M11 19V21H13V19M15 19V21H17V19M19 19V21A2 2 0 0 0 21 19Z" /></svg>
